icons/monitor-triangleB.svg

<svg width="24" height="24" viewBox="0 0 24 24" fill="none" xmlns="http://www.w3.org/2000/svg">
<path fill-rule="evenodd" clip-rule="evenodd" d="M7 4.09998C5.21421 4.09998 3.75 5.56419 3.75 7.34998V13.35C3.75 15.1358 5.21421 16.6 7 16.6C7.41421 16.6 7.75 16.9358 7.75 17.35C7.75 17.7642 7.41421 18.1 7 18.1C4.38579 18.1 2.25 15.9642 2.25 13.35V7.34998C2.25 4.73576 4.38579 2.59998 7 2.59998H17C19.6142 2.59998 21.75 4.73576 21.75 7.34998V13.35C21.75 15.9642 19.6142 18.1 17 18.1C16.5858 18.1 16.25 17.7642 16.25 17.35C16.25 16.9358 16.5858 16.6 17 16.6C18.7858 16.6 20.25 15.1358 20.25 13.35V7.34998C20.25 5.56419 18.7858 4.09998 17 4.09998H7Z" fill="black"/>
<path d="M11.2001 16.35L9.40006 19.45C9.20006 19.95 9.50006 20.65 10.2001 20.65H13.8001C14.4001 20.65 14.8001 19.95 14.5001 19.45L12.7001 16.35C12.3001 15.75 11.6001 15.75 11.2001 16.35Z" fill="black"/>
<path fill-rule="evenodd" clip-rule="evenodd" d="M11.95 15.15C12.5175 15.15 13.0098 15.4627 13.324 15.934L13.3369 15.9533L15.1463 19.0695C15.4573 19.5927 15.3844 20.1852 15.1365 20.6133C14.8869 21.0445 14.4087 21.4 13.8 21.4H10.2C9.56674 21.4 9.07699 21.0686 8.81341 20.6133C8.56511 20.1844 8.51476 19.6436 8.70362 19.1715L8.72393 19.1207L10.5631 15.9533L10.5759 15.934C10.8902 15.4627 11.3824 15.15 11.95 15.15ZM11.8345 16.7508L10.0902 19.7549C10.0891 19.7643 10.0887 19.7755 10.0897 19.7883C10.0921 19.8174 10.1009 19.8433 10.1115 19.8617C10.1214 19.8788 10.1303 19.8855 10.135 19.8883C10.1378 19.89 10.1547 19.9 10.2 19.9H13.8C13.7999 19.9 13.8 19.9 13.8 19.9C13.8003 19.9001 13.8014 19.9004 13.8064 19.8973C13.8144 19.8923 13.8274 19.8807 13.8384 19.8617C13.8472 19.8466 13.8504 19.8341 13.8515 19.827L12.0654 16.7508C12.0259 16.6955 11.9921 16.6703 11.9742 16.6598C11.9643 16.654 11.9576 16.6517 11.9545 16.6508C11.9516 16.65 11.9502 16.65 11.95 16.65C11.9498 16.65 11.9485 16.65 11.9454 16.6508C11.9423 16.6517 11.9357 16.654 11.9257 16.6598C11.9078 16.6703 11.874 16.6955 11.8345 16.7508Z" fill="black"/>
</svg>

<svg xmlns="http://www.w3.org/2000/svg" fill="none" viewBox="0 0 24 24">
  <path fill="#000" fill-rule="evenodd" d="M7 4.1a3.262 3.262 0 0 0-3.25 3.25v6A3.262 3.262 0 0 0 7 16.6a.75.75 0 0 1 0 1.5 4.762 4.762 0 0 1-4.75-4.75v-6A4.762 4.762 0 0 1 7 2.6h10a4.762 4.762 0 0 1 4.75 4.75v6A4.762 4.762 0 0 1 17 18.1a.75.75 0 0 1 0-1.5 3.262 3.262 0 0 0 3.25-3.25v-6A3.262 3.262 0 0 0 17 4.1H7Z" clip-rule="evenodd"/>
  <path fill="#000" d="m11.2 16.35-1.8 3.1c-.2.5.1 1.2.8 1.2h3.6c.6 0 1-.7.7-1.2l-1.8-3.1c-.4-.6-1.1-.6-1.5 0Z"/>
  <path fill="#000" fill-rule="evenodd" d="M11.95 15.15c.568 0 1.06.313 1.374.784l.013.02 1.81 3.116c.31.523.237 1.115-.01 1.543a1.55 1.55 0 0 1-1.337.787h-3.6a1.57 1.57 0 0 1-1.387-.787 1.67 1.67 0 0 1-.11-1.441l.02-.051 1.84-3.168.013-.019c.314-.471.806-.784 1.374-.784Zm-.115 1.6-1.745 3.005a.18.18 0 0 0 .021.107.07.07 0 0 0 .024.026c.003.002.02.012.065.012h3.6l.006-.003a.105.105 0 0 0 .032-.035.101.101 0 0 0 .014-.035l-1.787-3.076a.315.315 0 0 0-.09-.091.088.088 0 0 0-.02-.01h-.01a.09.09 0 0 0-.02.01.315.315 0 0 0-.09.09Z" clip-rule="evenodd"/>
</svg>
